X:1
T: The Campbells are Coming
C:
R:Jig
Q:180
K:F
M:6/8
L:1/16
|:F2|A2c2d2 c2A2F2|A4A2 A4G2|A2c2d2 c2A2F2|G4G2 G4F2|A2c2d2 c2A2F2|A3BA2 f3ga2|f2d2f2 c2A2F2|A4A2 A4c2|
f4f2 f3ga2|c3dc2 c2A2F2|f4f2 f3ga2|d4d2 d4c2|c3de2 f3ed2|c3de2 f2g2a2|f2d2f2 c2A2F2|A4A2 A4:|
